icons/home.svg

<svg xmlns="http://www.w3.org/2000/svg" width="24" height="24" viewBox="0 0 24 24"><path d="M12 6.453l9 8.375v9.172h-6v-6h-6v6h-6v-9.172l9-8.375zm12 5.695l-12-11.148-12 11.133 1.361 1.465 10.639-9.868 10.639 9.883 1.361-1.465z"/></svg>

<?xml version="1.0" encoding="utf-8"?>
<!-- Generator: Adobe Illustrator 16.0.0, SVG Export Plug-In . SVG Version: 6.00 Build 0)  -->
<!DOCTYPE svg PUBLIC "-//W3C//DTD SVG 1.1//EN" "http://www.w3.org/Graphics/SVG/1.1/DTD/svg11.dtd">
<svg version="1.1" id="Layer_1" xmlns="http://www.w3.org/2000/svg" xmlns:xlink="http://www.w3.org/1999/xlink" x="0px" y="0px"
	 width="24px" height="24px" viewBox="0 0 24 24" enable-background="new 0 0 24 24" xml:space="preserve">
<path d="M12,6.453l9,8.375V24h-6v-6H9v6H3v-9.172L12,6.453z M24,12.148L12,1L0,12.133l1.361,1.465L12,3.73l10.639,9.883L24,12.148z"
	/>
</svg>
